X:480
T:Tarbolton, The
M:C|
L:1/8
Q:120
R:Reel (Key of Edor)
K:Edor
"Em"Beed e2BA | GBAF GFEF | "D"Dddc d2AG | FAGE FEDF |
"Em"Eeed efge | "D"fedf "Em"edBA | "G"~G2BG "D"~F2AF | BGAF "Em"GEE2 :|:
"Em"gfef gebe | gebe gfec | "D"~d2fd Adfd | cdAG FDEF |
"Em"GABG "D"FGAF | "Em"E2ef gfed | "G"~B3G "D"A2FA | BGAF "Em"GEE2 :|]
